Phone repair/img/star.svg

<svg width="20" height="21" viewBox="0 0 20 21" fill="none" xmlns="http://www.w3.org/2000/svg">
<path d="M15.5599 20C15.4 20.0006 15.2422 19.9629 15.0999 19.89L9.99988 17.22L4.89988 19.89C4.73428 19.977 4.54756 20.0159 4.36096 20.0022C4.17436 19.9884 3.99536 19.9226 3.84431 19.8122C3.69326 19.7017 3.57622 19.5511 3.5065 19.3775C3.43677 19.2039 3.41716 19.0142 3.44988 18.83L4.44988 13.2L0.329885 9.19996C0.201342 9.07168 0.110156 8.91083 0.0661124 8.73465C0.0220686 8.55848 0.0268296 8.37363 0.0798847 8.19996C0.137845 8.02223 0.244461 7.86431 0.387635 7.74412C0.530809 7.62392 0.704807 7.54627 0.889885 7.51996L6.58988 6.68996L9.09988 1.55996C9.18177 1.39089 9.30962 1.2483 9.46879 1.14853C9.62797 1.04876 9.81203 0.99585 9.99988 0.99585C10.1877 0.99585 10.3718 1.04876 10.531 1.14853C10.6901 1.2483 10.818 1.39089 10.8999 1.55996L13.4399 6.67996L19.1399 7.50996C19.325 7.53627 19.499 7.61392 19.6421 7.73412C19.7853 7.85431 19.8919 8.01223 19.9499 8.18996C20.0029 8.36363 20.0077 8.54848 19.9637 8.72465C19.9196 8.90083 19.8284 9.06169 19.6999 9.18996L15.5799 13.19L16.5799 18.82C16.6156 19.0074 16.5969 19.2012 16.526 19.3784C16.4551 19.5556 16.335 19.7088 16.1799 19.82C15.9988 19.9469 15.7808 20.0102 15.5599 20Z" fill="#FF005C"/>
</svg>

<svg width="20" height="21" fill="none" xmlns="http://www.w3.org/2000/svg"><path d="M15.56 20a1 1 0 0 1-.46-.11L10 17.22l-5.1 2.67a1.001 1.001 0 0 1-1.45-1.06l1-5.63-4.12-4a1 1 0 0 1-.25-1 1 1 0 0 1 .81-.68l5.7-.83L9.1 1.56a1 1 0 0 1 1.8 0l2.54 5.12 5.7.83a1 1 0 0 1 .81.68 1.001 1.001 0 0 1-.25 1l-4.12 4 1 5.63a1 1 0 0 1-.4 1 1 1 0 0 1-.62.18Z" fill="#FF005C"/></svg>
